**kern	**text	**kern	**text	**kern	**text	**kern	**text	**kern	**text	**cdata-harm
*staff5	*staff5	*staff4	*staff4	*staff3	*staff3	*staff2	*staff2	*staff1	*staff1	*
=1-	=1-	=1-	=1-	=1-	=1-	=1-	=1-	=1-	=1-	=1-
*clefF4	*	*clefGv2	*	*clefGv2	*	*clefG2	*	*clefG2	*	*
*k[b-]	*	*k[b-]	*	*k[b-]	*	*k[b-]	*	*k[b-]	*	*
*M4/4	*	*M4/4	*	*M4/4	*	*M4/4	*	*M4/4	*	*
2r	.	2d\	Pe-	2r	.	2r	.	1r	.	<ANTIF_3v
4r	.	2d\	r&ograve;	4r	.	4r	.	.	.	.
4G\	Pe-	.	.	4B-\	Pe-	4g/	Pe-	.	.	.
=2	=2	=2	=2	=2	=2	=2	=2	=2	=2	.
2D\	r&ograve;	4r	.	2A/	r&ograve;	2f#/	r&ograve;	2dd\	Pe-	.
.	.	4d\	se	.	.	.	.	.	.	<<CON_5v
2G\	se	4Bn\	co-	2r	.	4r	.	2dd\	r&ograve;	.
.	.	4B\	ro-	.	.	4g/	se	.	.	.
=3	=3	=3	=3	=3	=3	=3	=3	=3	=3	.
4C/	co-	2c\	na-	2G/	se	4e/	co-	4r	.	>
4C/	ro-	.	.	.	.	4e/	ro-	4cc\	se	.
2F\	na-	2c\	to	4F/	co-	2f/	na-	4a/	co-	.
.	.	.	.	4F/	ro-	.	.	4a/	ro-	.
=4	=4	=4	=4	=4	=4	=4	=4	=4	=4	.
2BB-/	to	4r	.	4B-\	na-	4d/	to	2b-\	na-	.
.	.	4d\	e	2F/	to	2f/	e	.	.	.
2F\	e	4c\	trion-	.	.	.	.	2a/	to	.
.	.	4f\	fan-	4c\	e	4a/	trion-	.	.	.
=5	=5	=5	=5	=5	=5	=5	=5	=5	=5	.
2D\	trion-	8f\L	.	4F/	trion-	1a/	fan-	4dd\	e	.
.	.	8e\J	.	.	.	.	.	.	.	.
.	.	[4d\	.	2A/	fan-	.	.	4ff\	trion-	.
2A\	fan-	8d\L]	.	.	.	.	.	2ee\	fan-	.
.	.	16c#\L	.	.	.	.	.	.	.	.
.	.	16B-\JJ	.	.	.	.	.	.	.	.
.	.	4c#\	.	4A/	te	.	.	.	.	.
=6	=6	=6	=6	=6	=6	=6	=6	=6	=6	.
2D\	te	2d\	te	4r	.	1f/	te	1dd\	te	>>
.	.	.	.	4B-\	Di	.	.	.	.	<CON_5v
4r	.	4f\	Di	4.d\	lau-	.	.	.	.	.
4B-\	Di	[4d\	lau-	.	.	.	.	.	.	.
.	.	.	.	8c\	ro	.	.	.	.	.
=7	=7	=7	=7	=7	=7	=7	=7	=7	=7	.
4.d\	lau-	8d\L]	.	4B-\	tem-	2r	.	4r	.	.
.	.	8e\J	ro	.	.	.	.	.	.	.
.	.	2f\	tem-	4A/	po	.	.	4ff\	Di	.
8c\	ro	.	.	.	.	.	.	.	.	.
4B-\	tem-	.	.	4B-\	fu-	2f/	Di	4.dd\	lau-	.
4A\	po	4a\	po	4F/	i	.	.	.	.	.
.	.	.	.	.	.	.	.	8cc\	ro	.
=8	=8	=8	=8	=8	=8	=8	=8	=8	=8	.
1B-\	fu-	4.f\	fu-	1r	.	4.d/	lau-	4b-\	tem-	.
.	.	.	.	.	.	.	.	4f/	po	.
.	.	8e\	.	.	.	8e/	ro	.	.	.
.	.	8d\L	.	.	.	4f/	tem-	2b-\	fu-	.
.	.	8c\J	.	.	.	.	.	.	.	.
.	.	4d\	.	.	.	4g/	po	.	.	.
=9	=9	=9	=9	=9	=9	=9	=9	=9	=9	.
1F\	i	1c\	i	1r	.	2a/	fu-	2a/	i	>
.	.	.	.	.	.	2f/	i	[2a/	La	<CON_2v+1doub
=10	=10	=10	=10	=10	=10	=10	=10	=10	=10	.
1r	.	1r	.	1d\	La	2r	.	2a/]	.	.
.	.	.	.	.	.	2f/	La	[2b-\	fe-	.
=11	=11	=11	=11	=11	=11	=11	=11	=11	=11	.
1r	.	1r	.	2.e-\	fe-	2.g/	fe-	4b-\]	.	.
.	.	.	.	.	.	.	.	4a/	de	.
.	.	.	.	.	.	.	.	2g/	f&ugrave;	.
.	.	.	.	4d\	de	4f/	de	.	.	.
=12	=12	=12	=12	=12	=12	=12	=12	=12	=12	.
1r	.	1r	.	2c\	f&ugrave;	2e/	f&ugrave;	4r	.	>
.	.	.	.	.	.	.	.	4cc\	ch'al-	<CON_3v
.	.	.	.	4r	.	2r	.	4.a/	te-	.
.	.	.	.	4c\	ch'al-	.	.	.	.	.
.	.	.	.	.	.	.	.	8b-\	ro	.
=13	=13	=13	=13	=13	=13	=13	=13	=13	=13	.
1r	.	1r	.	4.A/	te-	4r	.	4cc\	mi	.
.	.	.	.	.	.	4f/	ch'al-	4cc\	fa-	.
.	.	.	.	8A/	ro	.	.	.	.	.
.	.	.	.	4B-\	mi	4.d/	te-	2b-\	ce-	.
.	.	.	.	4G/	fa-	.	.	.	.	.
.	.	.	.	.	.	8e/	ro	.	.	.
=14	=14	=14	=14	=14	=14	=14	=14	=14	=14	.
1r	.	2r	.	2d\	ce-	4f/	mi	1a/	a	.
.	.	.	.	.	.	4f/	fa-	.	.	.
.	.	[2A/	La	2c\	a	2e/	ce-	.	.	><CON_2v+1doub_rep
=15	=15	=15	=15	=15	=15	=15	=15	=15	=15	.
1D\	La	2A/]	.	1f\	La	1d/	a	1r	.	.
.	.	[2B-\	fe-	.	.	.	.	.	.	.
=16	=16	=16	=16	=16	=16	=16	=16	=16	=16	.
2.E-\	fe-	4B-\]	.	2.g\	fe-	1r	.	1r	.	.
.	.	4A/	de	.	.	.	.	.	.	.
.	.	[2G/	f&ugrave;	.	.	.	.	.	.	.
4D\	de	.	.	4f\	de-	.	.	.	.	.
=17	=17	=17	=17	=17	=17	=17	=17	=17	=17	.
2C/	f&ugrave;	4G/]	.	2e\	f&ugrave;	1r	.	1r	.	>
.	.	4c\	ch'al-	.	.	.	.	.	.	<CON_5v_rep
2r	.	4.A/	te-	4r	.	.	.	.	.	.
.	.	.	.	4f\	ch'al-	.	.	.	.	.
.	.	8B-\	ro	.	.	.	.	.	.	.
=18	=18	=18	=18	=18	=18	=18	=18	=18	=18	.
1r	.	4c\	mi	4.e\	te-	1r	.	4r	.	.
.	.	4c\	fa-	.	.	.	.	4cc\	ch'al-	.
.	.	.	.	8e\	ro	.	.	.	.	.
.	.	2d\	ce-	4f\	mi	.	.	4.a/	te-	.
.	.	.	.	4d\	fa-	.	.	.	.	.
.	.	.	.	.	.	.	.	8b-\	ro	.
=19	=19	=19	=19	=19	=19	=19	=19	=19	=19	.
2F\	ch'al-	2c\	a	4.a\	ce-	2r	.	4cc\	mi	.
.	.	.	.	.	.	.	.	4cc\	fa-	.
.	.	.	.	8g\	.	.	.	.	.	.
4.D\	te-	2r	.	2f\	.	4r	.	8b-/L	ce-	.
.	.	.	.	.	.	.	.	8a/J	.	.
.	.	.	.	.	.	4b-\	ch'al-	4dd\	.	.
8E\	ro	.	.	.	.	.	.	.	.	.
=20	=20	=20	=20	=20	=20	=20	=20	=20	=20	.
4F\	mi	1r	.	2f\	a	4.a/	te-	4cc\	a	.
4D\	fa-	.	.	.	.	.	.	4ff\	ch'al-	.
.	.	.	.	.	.	8b-\	ro	.	.	.
2A\	ce-	.	.	4r	.	4cc\	mi	4.ee\	te-	<<CON_4v+1double
.	.	.	.	4c\	Tem-	4cc\	fa-	.	.	.
.	.	.	.	.	.	.	.	8ff\	ro	.
=21	=21	=21	=21	=21	=21	=21	=21	=21	=21	.
4G\	a	2r	.	2d\	pran-	2b-\	ce-	4gg\	mi	.
4G\	Tem-	.	.	.	.	.	.	4gg\	fa-	.
2A\	pran-	4r	.	2c\	do	4a/	a	4ff\	ce-	.
.	.	4c\	Tem-	.	.	4a/	Tem-	4ee\	a	>
=22	=22	=22	=22	=22	=22	=22	=22	=22	=22	.
4G\	do	2d\	pran-	4r	.	2b-\	pran-	2r	.	.
4G\	Tem-	.	.	4B-\	Tem-	.	.	.	.	.
2F\	pran-	4f\	do	2c\	pran-	2a/	do	4r	.	.
.	.	[4f\	Tem-	.	.	.	.	4cc\	Tem-	.
=23	=23	=23	=23	=23	=23	=23	=23	=23	=23	.
2BB-/	do	4f\]	.	2B-\	do	2r	.	2dd\	pran-	.
.	.	2f\	pran-	.	.	.	.	.	.	.
4r	.	.	.	2r	.	4r	.	4cc\	do	.
4BB-/	Tem-	4f\	doin	.	.	4b-\	Tem-	4dd\	Tem-	.
=24	=24	=24	=24	=24	=24	=24	=24	=24	=24	.
2F\	pran-	4.f\	sie-	4r	.	2a/	pran-	2cc\	pran-	.
.	.	.	.	4F/	Tem-	.	.	.	.	.
.	.	8e\	.	.	.	.	.	.	.	.
2G\	doin	[2d\	.	4B-\	pran-	2g/	doin-	2b-\	doin-	.
.	.	.	.	4G/	doin-	.	.	.	.	.
=25	=25	=25	=25	=25	=25	=25	=25	=25	=25	.
4.D\	sie-	4d\]	.	2A/	sie-	4.f/	sie-	4.a/	sie-	.
.	.	4d\	meil	.	.	.	.	.	.	.
8D\	meil	.	.	.	.	8f/	meil	8a/	meil	.
4D\	vos-	4d\	vos-	2F/	meil	4f/	vos-	4a/	vos-	.
4D\	troaf-	4f\	troaf-	.	.	4a/	troaf-	4dd\	troaf-	.
=26	=26	=26	=26	=26	=26	=26	=26	=26	=26	.
2E-\	fet-	2e-\	fet-	4.G/	vos-	2.g/	fet-	4cc\	fet-	.
.	.	.	.	.	.	.	.	4b-\	to	.
.	.	.	.	8A/	.	.	.	.	.	.
2BB-/	toe'l	2d\	to	4B-\	troaf-	.	.	[2b-\	e'l	.
.	.	.	.	4B-\	fet-	4f/	to	.	.	.
=27	=27	=27	=27	=27	=27	=27	=27	=27	=27	.
1F\	mi-	4.c\	e'l	4c\	to	1f/	e'l	4b-\]	.	.
.	.	.	.	4F/	e'l	.	.	8a/L	mi-	.
.	.	8B-\	mi-	.	.	.	.	8g/J	.	.
.	.	2c\	.	2f\	mi-	.	.	2a/	.	.
=28	=28	=28	=28	=28	=28	=28	=28	=28	=28	.
4BB-/	o	4B-\	o	4d\	o	4f/	mio	4b-\	o	>>
4BB-/	Nel	4B-\	Nel	4d\	Nel	4f/	Nel	4b-\	Nel	<HOM_5v
4E\	mon-	4G/	mon-	4e-\	mon-	4.g/	mon-	4b-\	mon-	.
4C/	gi-	4c\	gi-	4e-\	gi-	.	.	4cc\	gi-	.
.	.	.	.	.	.	8a/	gi-	.	.	.
=29	=29	=29	=29	=29	=29	=29	=29	=29	=29	.
4.G\	bel	4B-\	bel	4d\	bel	4b-\	bel	8dd\L	bel	.
.	.	.	.	.	.	.	.	8g\J	d'A-	.
.	.	4d\	d'A-	4G/	d'A-	4b-\	d'A-	2gg\	mo-	.
8G\	d'A-	.	.	.	.	.	.	.	.	.
2D\	mo-	2d\	mo-	2A/	mo-	2a/	mo-	.	.	.
.	.	.	.	.	.	.	.	4ff#\	.	.
=30	=30	=30	=30	=30	=30	=30	=30	=30	=30	.
2G\	re.	2d\	re.	2Bn\	re.	2g/	re.	2gg\	re.	>
2r	.	2r	.	2r	.	4r	.	[2dd\	Ma	<ANTIF_2v
.	.	.	.	.	.	4g/	Ma	.	.	.
=31	=31	=31	=31	=31	=31	=31	=31	=31	=31	.
2r	.	2.d\	Ma	1r	.	4f/	poi	4dd\]	.	.
.	.	.	.	.	.	4d/	ch'em-	4b-\	poi	.
4r	.	.	.	.	.	4f/	pio	4a/	ch'em-	.
4G\	poi	4B-\	poi	.	.	4d/	de-	4b-\	pio	.
=32	=32	=32	=32	=32	=32	=32	=32	=32	=32	.
4F\	ch'em-	4A/	ch'em-	1r	.	4a/	si-	4cc\	de-	.
4D\	pio	4B-\	pio	.	.	8g/L	.	4dd\	si-	.
.	.	.	.	.	.	8f/J	.	.	.	.
4A\	de-	4c\	de-	.	.	4e/	.	8cc\L	.	.
.	.	.	.	.	.	.	.	8b-\J	.	.
4F\	si-	8d\L	si-	.	.	[4f/	.	[4a/	.	.
.	.	8c\J	.	.	.	.	.	.	.	.
=33	=33	=33	=33	=33	=33	=33	=33	=33	=33	.
2G\	.	8B-/L	.	2r	.	4f/]	.	4a/]	.	.
.	.	8A/J	.	.	.	.	.	.	.	.
.	.	4B-\	.	.	.	4e/	.	4g/	.	.
2F\	o	2c\	o	4r	.	4f/	o	2a/	o	>
.	.	.	.	4A/	Vi	4a/	Vi	.	.	<ANTIF_3v
=34	=34	=34	=34	=34	=34	=34	=34	=34	=34	.
1r	.	1r	.	4B-\	se	4f/	se	1r	.	.
.	.	.	.	[4d\	tor-	[4f/	tor-	.	.	.
.	.	.	.	8d\L]	.	8f/L]	.	.	.	.
.	.	.	.	8d\J	ni	8f/J	ni	.	.	.
.	.	.	.	4e\	la	4g/	la	.	.	.
=35	=35	=35	=35	=35	=35	=35	=35	=35	=35	.
1r	.	2d\	Vi	8f\L	fe-	8a/L	fe-	4r	.	.
.	.	.	.	8e\J	.	8g/J	.	.	.	.
.	.	.	.	8d\L	.	8f/L	.	4a/	Vi	.
.	.	.	.	8c\J	.	8e/J	.	.	.	.
.	.	4B-\	se	2d\	.	2f/	.	4b-\	se	.
.	.	[4B-\	tor-	.	.	.	.	[4dd\	tor-	.
=36	=36	=36	=36	=36	=36	=36	=36	=36	=36	.
4r	.	8B-\L]	.	2G/	de	4g/	de	8dd\L]	.	.
.	.	8B-\J	ni	.	.	.	.	8dd\J	ni	.
4C/	Vi	4G/	la	.	.	4g/	Vi	4ee\	la	.
4D\	se	4B-\	fe-	2r	.	4f/	se	4ff\	fe-	.
[4F\	tor-	4A/	de	.	.	[4a/	tor-	4cc\	de	.
=37	=37	=37	=37	=37	=37	=37	=37	=37	=37	.
8F\L]	.	4c\	Vi	1r	.	8a/L]	.	1r	.	<<CON_3v
8F\J	ni	.	.	.	.	8a/J	ni	.	.	.
4G\	la	4B-\	se	.	.	4g/	la	.	.	.
4B-\	fe-	4.d\	tor-	.	.	4.f/	fe-	.	.	.
4BB-/	dee	.	.	.	.	.	.	.	.	.
.	.	8d\	ni	.	.	8b-\	dee	.	.	.
=38	=38	=38	=38	=38	=38	=38	=38	=38	=38	.
4C/	dar-	4e\	la	4r	.	4g/	dar-	2r	.	.
4D\	laal-	2f\	fe-	4A/	Vi	4f/	laal-	.	.	.
2C/	tru-	.	.	4c\	se	2g/	tru-	4r	.	.
.	.	4e\	dee	[4c\	tor-	.	.	4g/	Vi	.
=39	=39	=39	=39	=39	=39	=39	=39	=39	=39	.
1F\	i	4f\	dar-	8c\L]	.	1f/	i	4a/	se	>
.	.	.	.	8c\J	ni	.	.	.	.	.
.	.	4c\	laal-	4A/	la	.	.	[4cc\	tor-	.
.	.	4A/	tru-	2f\	fe-	.	.	8cc\L]	.	.
.	.	.	.	.	.	.	.	8cc\J	ni	.
.	.	4A/	i	.	.	.	.	4dd\	la	.
=40	=40	=40	=40	=40	=40	=40	=40	=40	=40	.
1r	.	4r	.	4d\	dee	1r	.	4ff\	fe-	.
.	.	4d\	e	4d\	dar-	.	.	4f/	dee	.
.	.	4c\	dar-	4e\	laal-	.	.	4g/	dar-	.
.	.	4A/	laal-	[4f\	tru-	.	.	4a/	laal-	.
=41	=41	=41	=41	=41	=41	=41	=41	=41	=41	.
2r	.	2c\	tru-	4f\]	.	2r	.	2g/	tru-	.
.	.	.	.	4e\	.	.	.	.	.	.
4r	.	4F/	i	4f\	i	4r	.	2f/	i	>>
4F\	e	4c\	e	4f\	e	4a/	e	.	.	<HOM_5v
=42	=42	=42	=42	=42	=42	=42	=42	=42	=42	.
4G\	dar-	4Bn\	dar-	4d\	dar-	4g/	dar-	1r	.	.
4A\	laal-	4c\	laal-	4c\	laal-	4f#/	laal-	.	.	.
2G\	tru-	2d\	tru-	2Bn\	tru-	2g/	tru-	.	.	.
=43	=43	=43	=43	=43	=43	=43	=43	=43	=43	.
2.C/	i	2.e\	i	2.c\	i	1g/	i	2r	.	.
.	.	.	.	.	.	.	.	4r	.	.
4C/	e	4e\	e	4G/	e	.	.	4cc\	e	.
=44	=44	=44	=44	=44	=44	=44	=44	=44	=44	.
4D\	dar-	4f\	dar-	4d\	dar-	1r	.	4a/	dar-	.
4G\	laal-	4d\	laal-	4B-\	laal-	.	.	4g/	laal-	.
2D\	tru-	2d\	tru-	2A/	tru-	.	.	2f#/	tru-	.
=45	=45	=45	=45	=45	=45	=45	=45	=45	=45	.
4G\	i	1d\	i	4G/	i	4r	.	4g/	i	.
4G\	Io	.	.	4B-\	Io	4g/	Io	4dd\	Io	.
2D\	sprez-	.	.	2A/	sprez-	2f#/	sprez-	2dd\	sprez-	.
=46	=46	=46	=46	=46	=46	=46	=46	=46	=46	.
2G\	zo	4r	.	2Bn\	zo	2g/	zo	2dd\	zo	>
.	.	4G/	Io	.	.	.	.	.	.	<HOMlib_4v+CON_1v
4r	.	2c\	sprez-	4r	.	4r	.	4r	.	.
4C/	Io	.	.	4c\	Io	4g/	Io	4ee-\	Io	.
=47	=47	=47	=47	=47	=47	=47	=47	=47	=47	.
2F\	sprez-	4c\	zo	4.A/	sprez-	8a/L	spre-	8cc\L	sprez-	.
.	.	.	.	.	.	8g/J	zo	8b-\J	zo	.
.	.	4c\	Io	.	.	8a/L	la	8cc\L	la	.
.	.	.	.	8G/	zo	8b-/J	co-	8dd\J	co-	.
2F\	zo	4.c\	sprez-	8A/L	la	2a/	ro-	2cc\	ro-	.
.	.	.	.	8B-/J	co-	.	.	.	.	.
.	.	.	.	4c\	ro-	.	.	.	.	.
.	.	8d\	zo	.	.	.	.	.	.	.
=48	=48	=48	=48	=48	=48	=48	=48	=48	=48	.
4r	.	8e\L	la	4c\	na	2g/	na	4cc\	na	.
.	.	8f\J	co-	.	.	.	.	.	.	.
4C/	Io	4e\	ro-	4c\	Io	.	.	4cc\	Io	.
8F\L	sprez-	2f\	na	4.c\	sprez-	2r	.	8a/L	sprez-	.
8E\J	zo	.	.	.	.	.	.	8g/J	zo	.
8F\L	la	.	.	.	.	.	.	8a/L	la	.
8G\J	co-	.	.	8B-\	zo	.	.	8b-/J	co-	.
=49	=49	=49	=49	=49	=49	=49	=49	=49	=49	.
2F\	ro-	1r	.	8c\L	la	2r	.	2.a/	ro-	.
.	.	.	.	8d\J	co-	.	.	.	.	.
.	.	.	.	2c\	ro-	.	.	.	.	.
2F\	na	.	.	.	.	2a/	e'l	.	.	.
.	.	.	.	4f\	nae'l	.	.	4cc\	nae'l	.
=50	=50	=50	=50	=50	=50	=50	=50	=50	=50	.
2r	.	2r	.	2f\	fal-	2b-\	fal-	2dd\	fal-	.
4r	.	4r	.	2f\	so	4a/	so	4cc\	so	>
4F\	e'l	4c\	e'l	.	.	4f/	e'l	4a/	e'l	<HOMlib_5v
=51	=51	=51	=51	=51	=51	=51	=51	=51	=51	.
2F\	fal-	2d\	fal-	1r	.	2f/	fal-	2b-\	fal-	.
4F\	so	2c\	soho-	.	.	4f/	so	4a/	so	.
4F\	e'l	.	.	.	.	4a/	e'l	4ff\	e'l	.
=52	=52	=52	=52	=52	=52	=52	=52	=52	=52	.
2G\	fal-	4g\	no-	1r	.	2b-\	fal-	4ee\	fal-	.
.	.	4f\	.	.	.	.	.	4dd\	soho-	.
2A\	soho-	4e\	.	.	.	2g/	soho-	[2dd\	no-	.
.	.	4d\	.	.	.	.	.	.	.	.
=53	=53	=53	=53	=53	=53	=53	=53	=53	=53	.
1A\	no-	1e\	.	1r	.	1a/	no-	4dd\]	.	.
.	.	.	.	.	.	.	.	8cc\L	.	.
.	.	.	.	.	.	.	.	8b-\J	.	.
.	.	.	.	.	.	.	.	2cc\	.	.
=54	=54	=54	=54	=54	=54	=54	=54	=54	=54	.
1D\	re	2.d\	re	2r	.	1a/	re	4dd\	re	.
.	.	.	.	.	.	.	.	4dd\	e'l	.
.	.	.	.	4r	.	.	.	4.ff\	fal-	.
.	.	4f\	e'l	4A/	e'l	.	.	.	.	.
.	.	.	.	.	.	.	.	8ee\	.	.
=55	=55	=55	=55	=55	=55	=55	=55	=55	=55	.
1r	.	2g\	fal-	2B-\	fal-	2r	.	4dd\	.	.
.	.	.	.	.	.	.	.	8cc\L	.	.
.	.	.	.	.	.	.	.	8b-\J	.	.
.	.	4f\	so	4A/	so	4r	.	4cc\	.	.
.	.	4c\	e'l	4F/	e'l	4a/	e'l	4ff\	soho-	.
=56	=56	=56	=56	=56	=56	=56	=56	=56	=56	.
2r	.	2d\	fal-	2F/	fal-	2b-\	fal-	2ff\	no-	.
4r	.	4c\	so	2F/	soho-	4a/	so	2ff\	re	.
4BB-/	e'l	4d\	e'l	.	.	4b-\	e'l	.	.	.
=57	=57	=57	=57	=57	=57	=57	=57	=57	=57	.
2C/	fal-	2e-\	fal-	4c\	no-	4a/	fal-	1r	.	.
.	.	.	.	4B-\	.	4g/	soho-	.	.	.
2E-\	soho-	2c\	soho-	4A/	.	[2g/	no-	.	.	.
.	.	.	.	4G/	.	.	.	.	.	.
=58	=58	=58	=58	=58	=58	=58	=58	=58	=58	.
1D\	no-	1d\	no-	2A/	.	4g/]	.	1r	.	.
.	.	.	.	.	.	8f/L	.	.	.	.
.	.	.	.	.	.	8e/J	.	.	.	.
.	.	.	.	2A/	re	2f/	.	.	.	.
=59	=59	=59	=59	=59	=59	=59	=59	=59	=59	.
1G\	re	1d\	re	1r	.	1g/	re	1r	.	>
=60	=60	=60	=60	=60	=60	=60	=60	=60	=60	.
3B-\	Io	1r	.	3d\	Io	3f/	Io	1r	.	<HOMlib_3v
3A\	can-	.	.	3c\	can-	3f/	can-	.	.	.
3G\	gioil	.	.	3B-\	gioil	3g/	gioil	.	.	.
=61	=61	=61	=61	=61	=61	=61	=61	=61	=61	.
6d\	fo-	1r	.	6f\	fo-	2a/	fo-	1r	.	.
12c\	.	.	.	12e\	.	.	.	.	.	.
12B-\	.	.	.	12d\	.	.	.	.	.	.
6A\	.	.	.	6c\	.	.	.	.	.	.
6B-\	.	.	.	6d\	.	12g/L	.	.	.	.
.	.	.	.	.	.	12f/J	.	.	.	.
3c\	co	.	.	3e\	.	6e/	.	.	.	.
.	.	.	.	.	.	6f/	.	.	.	>
=62	=62	=62	=62	=62	=62	=62	=62	=62	=62	.
3G\	in	1r	.	3d\	co	6g/	.	1r	.	<HOMlib_3v_rep
.	.	.	.	.	.	6d/	co	.	.	.
3A\	ghiac-	.	.	3d\	in	3f/	in	.	.	.
3A\	cio	.	.	3c#\	ghiac-	3e/	ghiac-	.	.	.
=63	=63	=63	=63	=63	=63	=63	=63	=63	=63	.
1r	.	1r	.	[2d\	cio	[2d/	cio	1r	.	.
.	.	.	.	6d\]	.	6d/]	.	.	.	.
.	.	.	.	12r	.	12r	.	.	.	.
.	.	.	.	12r	.	12r	.	.	.	.
.	.	.	.	6r	.	6r	.	.	.	.
=64	=64	=64	=64	=64	=64	=64	=64	=64	=64	.
1r	.	3B-\	Io	3f\	Io	1r	.	3dd\	Io	.
.	.	3A/	can-	3f\	can-	.	.	3cc\	can-	.
.	.	3G/	gioil	3g\	gioil	.	.	3b-\	gioil	.
=65	=65	=65	=65	=65	=65	=65	=65	=65	=65	.
1r	.	[2d\	fo-	3f\	fo-	1r	.	3a/	fo-	.
.	.	.	.	6e\	.	.	.	6g/	.	.
.	.	6d\]	.	6d\	.	.	.	6f/	.	.
.	.	3c\	co	3e\	co	.	.	3g/	co	.
=66	=66	=66	=66	=66	=66	=66	=66	=66	=66	.
1r	.	[2d\	in	3d\	in	1r	.	3f/	in	.
.	.	.	.	3A/	ghiac-	.	.	[6e/	ghiac-	.
.	.	6d\]	.	.	.	.	.	2e/]	.	.
.	.	3c#\	ghiac-	3A/	cio	.	.	.	.	.
=67	=67	=67	=67	=67	=67	=67	=67	=67	=67	.
1r	.	2d\	cio	2r	.	1r	.	2d/	cio	>
.	.	4r	.	4r	.	.	.	4r	.	.
.	.	4A/	E	4c\	E	.	.	4a/	E	<HOM_5v
=68	=68	=68	=68	=68	=68	=68	=68	=68	=68	.
1r	.	4B-\	quan-	4d\	quan-	1r	.	4f/	quan-	.
.	.	[4B-\	toar-	[4d\	toar-	.	.	[4f/	toar-	.
.	.	8B-\L]	.	8d\L]	.	.	.	8f/L]	.	.
.	.	8B-\J	si	8d\J	si	.	.	8f/J	si	.
.	.	4G/	D'A-	4e\	D'A-	.	.	4g/	D'A-	.
=69	=69	=69	=69	=69	=69	=69	=69	=69	=69	.
1r	.	4d\	mor	4f\	mor	4r	.	4a/	mor	.
.	.	4f\	E	4d\	E	4d/	E	4a/	E	.
.	.	4d\	quan-	4B-\	quan-	4f/	quan-	4b-\	quan-	.
.	.	[4f\	toar-	[4B-\	toar-	[4b-\	toar-	[4dd\	toar-	.
=70	=70	=70	=70	=70	=70	=70	=70	=70	=70	.
4r	.	8f\L]	.	8B-\L]	.	8b-\L]	.	8dd\L]	.	.
.	.	8f\J	si	8B-\J	si	8b-\J	si	8dd\J	si	.
4C/	d'A-	4e\	d'A-	4G/	d'A-	4cc\	d'A-	4ee\	d'A-	.
4D\	mor	4d\	mor	4F/	mor	4a/	mor	2ff\	mor	.
[4F\	A	4c\	A	4F/	A	4a/	A	.	.	.
=71	=71	=71	=71	=71	=71	=71	=71	=71	=71	.
8F\L]	.	4f\	quan-	4A/	quan-	4cc\	quan-	1r	.	.
8F\J	quan-	.	.	.	.	.	.	.	.	.
4G\	toar-	[4d\	toar-	[4B-\	toar-	4b-\	toar-	.	.	.
2A\	si	8d\L]	.	8B-\L]	.	4f/	si	.	.	.
.	.	8d\J	si	8B-\J	si	.	.	.	.	.
.	.	4f\	d'A-	4d\	d'A-	4b-\	d'A-	.	.	.
=72	=72	=72	=72	=72	=72	=72	=72	=72	=72	.
1r	.	2f\	mor	2f\	mor	4a/	mor	2r	.	>
.	.	.	.	.	.	4cc\	di	.	.	<ANTIF_2v
.	.	2r	.	2r	.	2b-\	sdeg-	4r	.	.
.	.	.	.	.	.	.	.	4dd\	di	.
=73	=73	=73	=73	=73	=73	=73	=73	=73	=73	.
1r	.	4r	.	4r	.	2a/	noag-	2cc\	sdeg-	.
.	.	4f\	di	4A/	di	.	.	.	.	.
.	.	2d\	sdeg-	2B-\	sdeg-	[2g/	ghiac-	2b-\	noag-	.
=74	=74	=74	=74	=74	=74	=74	=74	=74	=74	.
1r	.	2e-\	noag-	2c\	noag-	2g/]	.	1a/	ghiac-	.
.	.	2d\	ghiac-	2d\	ghiac-	2f#/	.	.	.	.
=75	=75	=75	=75	=75	=75	=75	=75	=75	=75	.
2r	.	1c\	cio	2G/	cio	2g/	cio	2g/	cio	>
4r	.	.	.	4r	.	4r	.	4r	.	.
4d\	E	.	.	4d\	E	4f/	E	4a/	E	<HOM_5v_rep
=76	=76	=76	=76	=76	=76	=76	=76	=76	=76	.
4B-\	quan-	1r	.	4d\	quan-	4f/	quan-	4b-\	quan-	.
[4B-\	toar-	.	.	[4f\	toar-	[4b-\	toar-	[4dd\	toar-	.
8B-\L]	.	.	.	8f\L]	.	8b-\L]	.	8dd\L]	.	.
8B-\J	si	.	.	8f\J	si	8b-\J	si	8dd\J	si	.
4G\	D'A-	.	.	4g\	D'A-	4b-\	D'A-	4ee\	D'A-	.
=77	=77	=77	=77	=77	=77	=77	=77	=77	=77	.
4F\	mor	4r	.	4c\	mor	2a/	mor	1ff\	mor	.
4A\	E	4a\	E	4c\	E	.	.	.	.	.
4B-\	quan-	4f\	quan-	4d\	quan-	2r	.	.	.	.
[4B-\	toar-	[4f\	toar-	[4d\	toar-	.	.	.	.	.
=78	=78	=78	=78	=78	=78	=78	=78	=78	=78	.
8B-\L]	.	8f\L]	.	8d\L]	.	4r	.	1r	.	.
8B-\J	si	8f\J	si	8d\J	si	.	.	.	.	.
4G\	D'A-	4g\	D'A-	4B-\	D'A-	4d/	di	.	.	.
2D\	mor	4a\	mor	2A/	mor	2f/	sdeg-	.	.	.
.	.	4a\	di	.	.	.	.	.	.	.
=79	=79	=79	=79	=79	=79	=79	=79	=79	=79	.
4r	.	2g\	sdeg-	4r	.	2e/	noag-	1r	.	.
4E\	di	.	.	4c\	di	.	.	.	.	.
2F\	sdeg-	2f\	noag-	2A/	sdeg-	[2d/	ghiac-	.	.	.
=80	=80	=80	=80	=80	=80	=80	=80	=80	=80	.
2G\	noag-	1e\	ghiac-	2B-\	noag-	2d/]	.	1r	.	.
2A\	ghiac-	.	.	2A/	ghiac-	2c#/	ci-	.	.	.
=81	=81	=81	=81	=81	=81	=81	=81	=81	=81	.
2D\	cio	4d\	cio	2A/	cio	4d/	o	2r	.	>
.	.	4a\	di	.	.	4dd\	di	.	.	<CON_5v
2r	.	4g\	sdeg-	2r	.	2b-\	sdeg-	4r	.	.
.	.	4f\	noag-	.	.	.	.	4dd\	di	.
=82	=82	=82	=82	=82	=82	=82	=82	=82	=82	.
4r	.	2e\	ghiac-	2c\	di	2a/	noag-	2cc\	sdeg-	.
4AA/	di	.	.	.	.	.	.	.	.	.
2BB-/	sdeg-	4d\	cio	2d\	sdeg-	[2g/	ghiac-	2b-\	noag-	.
.	.	4d\	di	.	.	.	.	.	.	.
=83	=83	=83	=83	=83	=83	=83	=83	=83	=83	.
2C/	noag-	4c\	sdeg-	2e-\	noag-	2g/]	.	1a/	ghiac-	.
.	.	4B-\	noag-	.	.	.	.	.	.	.
2D\	ghiac-	2A/	ghiac-	2d\	ghiac-	2f#/	ci-	.	.	.
=84	=84	=84	=84	=84	=84	=84	=84	=84	=84	.
1G\	cio.	1Bn\	cio.	1d\	cio.	1g/	o.	1g/	cio.	>
==	==	==	==	==	==	==	==	==	==	==
*-	*-	*-	*-	*-	*-	*-	*-	*-	*-	*-
